X:1
T:Cover with His Life
T:Cover with His Life
T:Franklin Edson Belden
T:Franklin Edson Belden, 1899
T:Public Domain Courtesy of the Cyber Hymnal™
T:Public Domain Courtesy of the Cyber Hymnal™
C:Franklin Edson Belden
Z:Public Domain
Z:Courtesy of the Cyber Hymnal™
%%score ( 1 2 ) 3
L:1/8
Q:1/4=115
M:9/8
K:Db
V:1 treble 
V:2 treble 
V:3 bass 
V:1
 [DF][DF][D=E] | [DF]3 D3 [FA][FA][=E=G] | ([FA]3 [DF]3) [DF][DF][D=E] | [DF]3 D3 [CE][CE][=B,=D] | %4
w: 1.~Look up- on|Je- sus, sin- less is|He; * Fa- ther, im-|pute His life un- to|
w: 2.~Deep are the|wounds trans- gress- ion has|made; * Red are the|stains; my soul is a-|
w: 3.~Long- ing the|joy of par- don to|know; * Je- sus holds|out a robe white as|
w: 4.~Re- con- ciled|by His death for my|sin, * Jus- ti- fied|by His life pure and|
 ([CE]3 [EG]3) [DF][DF][D=E] | [DF]3 D3 [DF][EG][FA] | ([GB]3 [Bd]3) [Be][Bd][GB] | %7
w: me. * My life of|scar- let, my sin and|woe, * Co- ver with|
w: fraid. * O to be|cov- ered, Je- sus, with|Thee, * Safe from the|
w: snow; * “Lord, I ac-|cept it! leav- ing my|own, * Glad- ly I|
w: clean, * Sanc- ti- fied|by o- bey- ing His|Word, * Glo- ri- fied|
 [FA]3 [DF]3 [EG][DF][CE] | D6 ||"^Refrain" [Gc][GB][GA] | [Fd]3 [FA]3 [GB][GB][GB] | %11
w: His life, whit- er than|snow.|||
w: law that now judg- eth|me!|||
w: wear Thy pure life a-|lone.”|||
w: when re- turn- eth my|Lord.|||
 [GB]3 [FA]3 [E=G][EF]E | [Ed]3 [E=G]3 [EG][EG][EG] | (A3 G3) [DF][DF][D=E] | %14
w: |||
w: |||
w: |||
w: |||
 [DF]3 D3 [DF][EG][FA] | [GB]3 [Bd]3 [Be][Bd][GB] | [FA]3 [DF]3 [EG][DF][CE] | D3 |] %18
w: ||||
w: ||||
w: ||||
w: ||||
V:2
 x3 | x3 D3 x3 | x9 | x3 =D3 x3 | x9 | x3 D3 x3 | x9 | x9 | D6 || x3 | x9 | x8 E | x9 | =E6 x3 | %14
 x3 D3 x3 | x9 | x9 | D3 |] %18
V:3
 [D,A,][D,A,][D,=G,] | [D,A,]3 [D,F,]3 [D,D][D,D][D,D] | ([D,-D]3 [D,A,]3) [D,A,][D,A,][D,=G,] | %3
w: |||
 [D,A,]3 [D,F,]3 [A,,A,][A,,A,][A,,A,] | [A,,A,]6 [D,A,][D,A,][D,=G,] | %5
w: ||
 [D,A,]3 [D,F,]3 [F,A,][E,A,][D,D] | [G,D]6 [G,B,][G,D][G,D] | %7
w: ||
 [D,D]3 [D,A,]3 [A,,A,][A,,A,][A,,A,] | [D,F,]6 || [A,E][A,D][A,C] | %10
w: ||Co- ver with|
 [D,A,]3 [D,D]3 [G,,D][A,,D][B,,D] | [D,D]6 [E,B,][E,A,][E,=G,] | %12
w: His life, whit- er than|snow; Full- ness of|
 [E,=G,]3 [E,B,]3 [E,B,][E,C][E,D] | [A,,C]6 [D,A,][D,A,][D,=G,] | %14
w: His life then shall I|know; My life of|
 [D,A,]3 [D,F,]3 [F,A,][E,A,][D,D] | [G,D]6 [G,B,][G,D][G,D] | %16
w: scar- let, my sin and|woe, Co- ver with|
 [D,D]3 [D,A,]3 [A,,A,][A,,A,][A,,A,] | [D,F,]3 |] %18
w: His life, whit- er than|snow.|

